extension/assets/logo.svg

<svg width="40" height="40" xmlns="http://www.w3.org/2000/svg" fill="none">

 <g>
  <title>Layer 1</title>
  <path id="svg_1" fill="black" d="m20,39.9375c0,-2.7667 -0.525,-5.3667 -1.575,-7.8c-1.05,-2.4333 -2.475,-4.55 -4.275,-6.35c-1.8,-1.8 -3.9167,-3.225 -6.35,-4.275c-2.43333,-1.05 -5.03333,-1.575 -7.8,-1.575c2.76667,0 5.36667,-0.525 7.8,-1.575c2.4333,-1.05 4.55,-2.475 6.35,-4.275c1.8,-1.8 3.225,-3.9167 4.275,-6.35c1.05,-2.43333 1.575,-5.03333 1.575,-7.8c0,2.76667 0.525,5.36667 1.575,7.8c1.05,2.4333 2.475,4.7375 4.275,6.5375c1.8,1.8 3.9167,3.0375 6.35,4.0875c2.4333,1.05 5.0333,1.575 7.8,1.575c-2.7667,0 -5.3667,0.525 -7.8,1.575c-2.4333,1.05 -4.55,2.475 -6.35,4.275c-1.8,1.8 -3.225,3.9167 -4.275,6.35c-1.05,2.4333 -1.575,5.0333 -1.575,7.8z"/>
  <path stroke="null" transform="rotate(-122.721 23.8152 13.0236)" id="svg_5" d="m19.31235,20.17731l0,-14.30738l9.00563,14.30738l-9.00563,0z" fill="#ffffff"/>
 </g>
</svg>

<svg width="40" height="40" viewBox="0 0 40 40" fill="none" xmlns="http://www.w3.org/2000/svg">
  <path
    d="M20 40C20 37.2333 19.475 34.6333 18.425 32.2C17.375 29.7667 15.95 27.65 14.15 25.85C12.35 24.05 10.2333 22.625 7.8 21.575C5.36667 20.525 2.76667 20 0 20C2.76667 20 5.36667 19.475 7.8 18.425C10.2333 17.375 12.35 15.95 14.15 14.15C15.95 12.35 17.375 10.2333 18.425 7.8C19.475 5.36667 20 2.76667 20 0C20 2.76667 20.525 5.36667 21.575 7.8C22.625 10.2333 24.05 12.35 25.85 14.15C27.65 15.95 29.7667 17.375 32.2 18.425C34.6333 19.475 37.2333 20 40 20C37.2333 20 34.6333 20.525 32.2 21.575C29.7667 22.625 27.65 24.05 25.85 25.85C24.05 27.65 22.625 29.7667 21.575 32.2C20.525 34.6333 20 37.2333 20 40Z"
    fill="black" />

  <g clip-path="url(#clip0_1_149)">
    <path
      d="M9 15.5C8.17708 15.5 7.40104 15.3437 6.67188 15.0312C5.94271 14.7187 5.30208 14.2917 4.75 13.75C4.20833 13.1979 3.78125 12.5573 3.46875 11.8281C3.15625 11.099 3 10.3229 3 9.5C3 8.66667 3.15625 7.89062 3.46875 7.17187C3.78125 6.44271 4.20833 5.80729 4.75 5.26562C5.30208 4.71354 5.94271 4.28125 6.67188 3.96875C7.40104 3.65625 8.17708 3.5 9 3.5C9.83333 3.5 10.6094 3.65625 11.3281 3.96875C12.0573 4.28125 12.6927 4.71354 13.2344 5.26562C13.7865 5.80729 14.2188 6.44271 14.5313 7.17187C14.8438 7.89062 15 8.66667 15 9.5C15 10.3229 14.8438 11.099 14.5313 11.8281C14.2188 12.5573 13.7865 13.1979 13.2344 13.75C12.6927 14.2917 12.0573 14.7187 11.3281 15.0312C10.6094 15.3437 9.83333 15.5 9 15.5ZM9 14.375C10.3542 14.375 11.5052 13.901 12.4531 12.9531C13.401 12.0052 13.875 10.8542 13.875 9.5C13.875 8.14583 13.401 6.99479 12.4531 6.04687C11.5052 5.09896 10.3542 4.625 9 4.625C7.64583 4.625 6.49479 5.09896 5.54688 6.04687C4.59896 6.99479 4.125 8.14583 4.125 9.5C4.125 10.8542 4.59896 12.0052 5.54688 12.9531C6.49479 13.901 7.64583 14.375 9 14.375Z"
      fill="black" />
  </g>

</svg>
